tools/download-figma-icons/icons/outlined-large/paperless.svg

<svg width="64" height="64" viewBox="0 0 64 64" fill="none" xmlns="http://www.w3.org/2000/svg">
<path fill-rule="evenodd" clip-rule="evenodd" d="M53.5256 51.4081L47.1237 45.0062V24.8794H47.1097C47.1087 24.4895 46.9697 24.1045 46.6837 23.8185L36.3858 13.5206C36.0998 13.2336 35.7148 13.0956 35.3258 13.0956V13.0816H20.144C18.807 13.0816 17.656 13.8446 17.0671 14.9496L12.5901 10.4726C17.734 5.83167 24.542 3.0007 31.9999 3.0007C47.9897 3.0007 60.9995 16.0095 60.9995 32.0004C60.9995 39.4573 58.1686 46.2642 53.5256 51.4081ZM44.0477 46.1742C43.9627 46.3222 43.8067 46.4272 43.6237 46.4272H20.144C19.869 46.4272 19.644 46.2022 19.644 45.9272V21.7685L44.0477 46.1742ZM36.8258 23.3795V18.2025L42.0028 23.3795H36.8258ZM35.3258 26.3794H44.1237V42.0062L19.644 17.5265V16.5815C19.644 16.3055 19.869 16.0815 20.144 16.0815H33.8259V24.8794C33.8259 25.7074 34.4979 26.3794 35.3258 26.3794ZM3.00021 32.0004C3.00021 24.5445 5.83018 17.7375 10.4701 12.5956L16.6441 18.7685V45.9272C16.6441 47.8562 18.214 49.4272 20.144 49.4272H43.6237C44.6337 49.4272 45.5387 48.9902 46.1777 48.3032L51.4047 53.5291C46.2607 58.1691 39.4558 61 31.9999 61C16.0091 61 3.00021 47.9902 3.00021 32.0004ZM31.9999 0.000732413C14.3271 0.000732413 0.000244138 14.3266 0.000244138 32.0004C0.000244138 49.6732 14.3271 64 31.9999 64C49.6717 64 63.9995 49.6732 63.9995 32.0004C63.9995 14.3266 49.6717 0.000732413 31.9999 0.000732413Z" fill="black"/>
</svg>

<svg xmlns="http://www.w3.org/2000/svg" width="64" height="64" fill="none" viewBox="0 0 64 64"><path fill="currentColor" fill-rule="evenodd" d="m53.526 51.408-6.402-6.402V24.88h-.014a1.5 1.5 0 0 0-.426-1.06l-10.298-10.3a1.48 1.48 0 0 0-1.06-.425v-.014H20.144c-1.337 0-2.488.763-3.077 1.868l-4.477-4.477C17.734 5.832 24.542 3 32 3c15.99 0 29 13.01 29 29 0 7.456-2.831 14.263-7.474 19.407m-9.478-5.234a.49.49 0 0 1-.424.253h-23.48a.5.5 0 0 1-.5-.5V21.77zM36.826 23.38v-5.177l5.177 5.177zm-1.5 3h8.798v15.626l-24.48-24.48v-.945a.5.5 0 0 1 .5-.5h13.682v8.798a1.5 1.5 0 0 0 1.5 1.5M3 32c0-7.456 2.83-14.262 7.47-19.404l6.174 6.172v27.16c0 1.928 1.57 3.5 3.5 3.5h23.48a3.48 3.48 0 0 0 2.554-1.125l5.227 5.226C46.26 58.17 39.455 61 32 61 16.01 61 3 47.99 3 32M32 0C14.327 0 0 14.328 0 32s14.327 32 32 32c17.672 0 32-14.327 32-32S49.671 0 32 0" clip-rule="evenodd"/></svg>
